images/icon-lower-half.svg

<svg xmlns="http://www.w3.org/2000/svg" width="445" height="290" fill="none"><path fill="#F7F6FF" stroke="#0D0B33" stroke-linejoin="round" stroke-width="1.424" d="M273.899 222.138c0 5.292-1.749 9.566-5.242 11.586l-92.245 53.261c-5.875 3.392-13.841 2.603-22.142-2.191L1.02 196.311l65.693-37.925 127.033 73.34c7.988 4.609 14.46.875 14.46-8.351V99.799l17.177 29.745 43.281 74.99c3.486 6.024 5.235 12.319 5.235 17.604Z"/><path fill="#79EFBD" stroke="#0D0B33" stroke-linejoin="round" stroke-width="1.424" d="M443.895 123.983c0 5.292-1.75 9.567-5.243 11.587l-92.245 53.26-77.742 44.867c3.493-2.02 5.242-6.294 5.242-11.586 0-5.292-1.749-11.58-5.242-17.633l-43.274-74.961L208.207 99.8l48.516-28.01L378.201 1.645l60.458 104.734c3.486 6.025 5.236 12.32 5.236 17.604Z"/></svg>

<svg width="445" height="290" viewBox="0 0 445 290" fill="none" xmlns="http://www.w3.org/2000/svg">
<path d="M273.899 222.138C273.899 227.43 272.15 231.704 268.657 233.724L176.412 286.985C170.537 290.377 162.571 289.588 154.27 284.794L1.01953 196.311L66.7127 158.386L193.746 231.726C201.734 236.335 208.206 232.601 208.206 223.375V99.7988L225.383 129.544L268.664 204.534C272.15 210.558 273.899 216.853 273.899 222.138Z" fill="#F7F6FF" stroke="#0D0B33" stroke-width="1.42437" stroke-linejoin="round"/>
<path d="M443.895 123.983C443.895 129.275 442.145 133.55 438.652 135.57L346.407 188.83L268.665 233.697C272.158 231.677 273.907 227.403 273.907 222.111C273.907 216.819 272.158 210.531 268.665 204.478L225.391 129.517L208.207 99.8002L256.723 71.7903L378.201 1.64453L438.659 106.379C442.145 112.404 443.895 118.699 443.895 123.983Z" fill="#79EFBD" stroke="#0D0B33" stroke-width="1.42437" stroke-linejoin="round"/>
</svg>
